src/assets/img/providers-white/swintt.svg

<svg width="70" height="28" viewBox="0 0 70 28" fill="none" xmlns="http://www.w3.org/2000/svg">
<g clip-path="url(#clip0_4426_7988)">
<path fill-rule="evenodd" clip-rule="evenodd" d="M11.2289 0.232422H21.8686L27.1899 9.44731L24.5919 13.9487L24.5893 13.9447H24.5299H19.7794V13.9434L16.6121 9.33788L19.2707 13.9447H19.2694L19.268 13.946L21.928 18.5528H21.9332L21.87 18.6609L21.8713 18.6635L16.5514 27.8784H5.91034L0.589172 18.6635L3.31369 13.9447H8.06284V13.946L8.33829 14.348L10.8216 17.9583L11.2302 18.5528V18.5515L8.57162 13.9447H8.57028V13.9434L5.97491 9.44731L5.94067 9.39061L11.2289 0.232422ZM34.0058 12.1872C34.0058 12.9899 34.8191 13.2403 35.7049 13.5039L35.7503 13.5171C36.9365 13.8618 38.2909 14.2553 38.2897 15.9068C38.2897 17.594 36.9017 18.5154 35.3582 18.5154C34.2813 18.5154 33.12 18.0725 32.3186 17.0918L33.3481 16.0149C33.8872 16.7096 34.7242 17.08 35.4663 17.08C36.2439 17.08 36.783 16.6727 36.783 16.0743C36.783 15.3653 36.0207 15.133 35.1537 14.8689L35.1526 14.8685C35.098 14.8519 35.043 14.8351 34.9878 14.8181C33.8279 14.4714 32.511 13.993 32.511 12.3532C32.511 10.6779 33.899 9.75659 35.395 9.75659C36.3757 9.75659 37.3696 10.1639 38.0392 10.9772L37.0822 12.0066C36.6631 11.4688 35.9566 11.1814 35.3226 11.1814C34.628 11.1814 34.0058 11.5044 34.0058 12.1872ZM45.3507 16.3648L43.9983 12.2483H42.5497L41.1854 16.3648L39.833 12.2483H38.2777L40.5158 18.3274H41.8563L43.268 14.2821L44.6797 18.3274H46.0321L48.2702 12.2483H46.6424L45.3507 16.3648ZM49.0916 12.2483H50.5517V18.3274H49.0916V12.2483ZM49.8219 9.46037C49.2707 9.46037 48.8408 9.86765 48.8408 10.4055C48.8408 10.9314 49.2719 11.3387 49.8219 11.3387C50.3726 11.3387 50.8025 10.9314 50.8025 10.4055C50.8025 9.86637 50.3714 9.46037 49.8219 9.46037ZM53.0973 13.1217C53.4689 12.4864 54.1975 12.1042 55.0363 12.1042C56.2567 12.1042 57.2267 12.8937 57.2267 14.4254V18.3269H55.7795V14.6652C55.7795 13.8283 55.2522 13.3972 54.5948 13.3972C53.8761 13.3972 53.1341 13.9364 53.1341 15.0607V18.3269H51.6857V12.2478H53.0973V13.1217ZM61.3089 17.0947C60.7583 17.0947 60.3284 16.7717 60.3284 16.1009V13.5411H62.4138L61.6659 12.2493H60.3284V9.75944H58.8677V12.2493H57.1778L57.9256 13.5411H58.8677V16.317C58.8677 17.6813 59.8366 18.3997 60.9624 18.3997C61.5131 18.3997 62.1116 18.2204 62.6378 17.8486L62.2539 16.7836C61.9547 16.9866 61.6082 17.0947 61.3089 17.0947ZM65.5702 16.1009C65.5702 16.7717 66.0001 17.0947 66.5514 17.0947C66.8506 17.0947 67.1971 16.9866 67.4964 16.7836L67.8796 17.8486C67.3541 18.2204 66.7556 18.3997 66.2043 18.3997C65.0791 18.3997 64.1101 17.6813 64.1101 16.317V13.5411H63.1675L62.4202 12.2493H64.1101V9.75944H65.5702V12.2493H66.9084L67.6556 13.5411H65.5702V16.1009ZM68.7774 12.2466C68.4081 12.2466 68.1381 12.5207 68.1381 12.8938C68.1381 13.2668 68.4081 13.5397 68.7774 13.5397C69.1467 13.5397 69.4167 13.2655 69.4167 12.8938C69.4179 12.5207 69.1467 12.2466 68.7774 12.2466ZM68.7774 13.4447C68.4717 13.4447 68.2407 13.2181 68.2407 12.8938C68.2407 12.5682 68.4729 12.3428 68.7774 12.3428C69.0831 12.3428 69.3123 12.5695 69.3123 12.8938C69.3141 13.2193 69.0831 13.4447 68.7774 13.4447ZM68.8298 12.5263C68.9792 12.5263 69.083 12.6199 69.083 12.753C69.083 12.8399 69.0317 12.9164 68.9512 12.9573L69.1058 13.2077H68.9238L68.7943 12.9929H68.6747V13.2077H68.523V12.5263H68.8298ZM68.6747 12.8663H68.8234C68.8853 12.8663 68.9278 12.8215 68.9261 12.7701C68.9261 12.7174 68.8841 12.6752 68.8211 12.6752H68.6747V12.8663Z" fill="white"/>
</g>
<defs>
<clipPath id="clip0_4426_7988">
<rect width="68.8334" height="28" fill="white" transform="translate(0.583313 0.000976562)"/>
</clipPath>
</defs>
</svg>

<svg xmlns="http://www.w3.org/2000/svg" width="70" height="28" fill="none"><g clip-path="url(#a)"><path fill="#fff" fill-rule="evenodd" d="M11.229.232h10.64l5.32 9.215-2.597 4.502-.003-.004h-4.81v-.002l-3.167-4.605 2.659 4.607h-.002l-.001.001 2.66 4.607h.005l-.063.108.001.002-5.32 9.215H5.911L.588 18.663l2.725-4.718h4.749v.001l.275.402 2.484 3.61.408.595v-.002l-2.658-4.606H8.57v-.002L5.975 9.447l-.034-.056L11.229.232Zm22.777 11.955c0 .803.813 1.053 1.699 1.317l.045.013c1.187.345 2.54.738 2.54 2.39 0 1.687-1.388 2.608-2.932 2.608-1.077 0-2.238-.442-3.04-1.423l1.03-1.077c.54.695 1.376 1.065 2.118 1.065.778 0 1.317-.407 1.317-1.006 0-.709-.762-.941-1.63-1.205l-.165-.05c-1.16-.348-2.477-.826-2.477-2.466 0-1.675 1.388-2.596 2.884-2.596.98 0 1.975.407 2.644 1.22l-.957 1.03c-.419-.538-1.125-.826-1.76-.826-.694 0-1.316.323-1.316 1.006Zm11.345 4.178-1.353-4.117H42.55l-1.365 4.117-1.352-4.117h-1.555l2.238 6.08h1.34l1.412-4.046 1.412 4.045h1.352l2.238-6.079h-1.628l-1.291 4.117Zm3.74-4.117h1.46v6.08h-1.46v-6.08Zm.73-2.788c-.55 0-.98.408-.98.945 0 .526.43.934.98.934.552 0 .982-.408.982-.934 0-.539-.432-.945-.981-.945Zm3.276 3.662c.372-.636 1.1-1.018 1.94-1.018 1.22 0 2.19.79 2.19 2.321v3.902H55.78v-3.662c0-.837-.528-1.268-1.185-1.268-.719 0-1.46.54-1.46 1.664v3.266h-1.45v-6.08h1.412v.875Zm8.212 3.973c-.55 0-.98-.323-.98-.994v-2.56h2.085l-.748-1.292h-1.338V9.76h-1.46v2.49h-1.69l.748 1.292h.942v2.776c0 1.364.969 2.083 2.094 2.083.551 0 1.15-.18 1.676-.551l-.384-1.065c-.3.203-.646.31-.945.31Zm4.261-.994c0 .67.43.994.981.994.3 0 .646-.108.945-.311l.384 1.065a2.934 2.934 0 0 1-1.676.55c-1.125 0-2.094-.718-2.094-2.082v-2.776h-.943l-.747-1.292h1.69V9.76h1.46v2.49h1.338l.748 1.292H65.57v2.56Zm3.207-3.854c-.369 0-.639.274-.639.647s.27.646.64.646c.369 0 .639-.274.639-.646a.623.623 0 0 0-.64-.647Zm0 1.198c-.305 0-.536-.227-.536-.551 0-.326.232-.551.536-.551.306 0 .535.226.535.55a.523.523 0 0 1-.535.552Zm.053-.919c.15 0 .253.094.253.227a.23.23 0 0 1-.132.204l.155.25h-.182l-.13-.214h-.12v.215h-.151v-.682h.307Zm-.155.34h.148c.062 0 .105-.044.103-.096 0-.053-.042-.095-.105-.095h-.146v.191Z" clip-rule="evenodd"/></g><defs><clipPath id="a"><path fill="#fff" d="M.583.001h68.833v28H.583z"/></clipPath></defs></svg>
